X:18
T:Hey Boys Up Go We. HA.019
M:C
L:1/4
Q:1/2=90
S:Henry Atkinson’s original MS,Hartburn,N’umberland,1694.
O:England
A:Hartburn,Northumberland
N:The minims at the ends of the phrases should perhaps be dotted. See
N:Playford eds 6A(1679) and all subsequent,(where the rhythm is
N:significantly different).CGP
H:1/4
Z:vmp.Chris Partington.Jan.2004
K:C
C|CcBA|(A/G/) F(E/F/)G|FEDC|”^NB.sic”c2C|
CcBA|(A/G/) F(E/F/)G|FEDC|c2G|
cd(e/f/)e|(d/B/)cAG|cBA>G|G2d|
gf(e/d/)c|f(e/d/) B(A/G/)|cEDB|c2G|]

